gama.ui.shared/icons_svg/dark/views/tabs/view.interactive.svg

<svg height="24.75" viewBox="-711.358 -2973.769 24.75 24.75" width="24.75" xmlns="http://www.w3.org/2000/svg"><path d="m-703.3295-2959.266c.091-.028.189-.014.273.035.6999.413 1.4909.637 2.3238.637 2.5129 0 4.5498-2.0368 4.5498-4.5496 0-2.5129-2.0369-4.5498-4.5498-4.5498-2.5128 0-4.5497 2.0369-4.5497 4.5498 0 .8259.224 1.6239.63694 2.3238.04896.084.06296.182.035.273l-.51094 1.7918zm7.6226-5.4036c2.19085.665 3.7238 2.6949 3.7238 5.0258 0 .9028-.231 1.7778-.658 2.5478l.644 2.254c.077.266-.168.511-.434.434l-2.2539-.644c-.76995.427-1.6449.658-2.54785.658-2.33085 0-4.36075-1.533-5.02575-3.724-.357-.105-.69995-.252-1.0219-.434l-2.2539.644c-.266.077-.511-.168-.434-.434l.644-2.2538c-.427-.7699-.658-1.6449-.658-2.5478 0-2.8979 2.3519-5.2498 5.2497-5.2498 2.3659 0 4.3748 1.568 5.0258 3.7238zm.175.805c.03496.238.04896.476.04896.721 0 2.8978-2.35186 5.2496-5.24976 5.2496-.24495 0-.4829-.014-.7209-.049.6859 1.694 2.33785 2.849 4.22075 2.849.82595 0 1.62395-.224 2.32385-.637.084-.049.182-.063.273-.035l1.7919.511-.51096-1.792c-.028-.091-.014-.189.03496-.273.413-.7.637-1.491.637-2.3238 0-1.8829-1.1549-3.5418-2.8488-4.2208z" fill="#c0e0ff"/></svg>

<?xml version="1.0" encoding="UTF-8" standalone="no"?>
<!DOCTYPE svg PUBLIC "-//W3C//DTD SVG 1.1//EN" "http://www.w3.org/Graphics/SVG/1.1/DTD/svg11.dtd">
<svg xmlns="http://www.w3.org/2000/svg" xmlns:dc="http://purl.org/dc/elements/1.1/" version="1.1" xmlns:xl="http://www.w3.org/1999/xlink" viewBox="-711.35776 -2973.7685 24.75 24.75" width="24.75" height="24.75">
  <defs/>
  <g id="SOURCES" fill="none" stroke="none" stroke-dasharray="none" fill-opacity="1" stroke-opacity="1">
    <title>SOURCES</title>
    <g id="SOURCES_Dark">
      <title>Dark</title>
      <g id="Group_12695">
        <g id="Graphic_11041">
          <path d="M -703.3295 -2959.266 C -703.2385 -2959.294 -703.1405 -2959.28 -703.0565 -2959.231 C -702.3566 -2958.818 -701.5656 -2958.594 -700.7327 -2958.594 C -698.2198 -2958.594 -696.1829 -2960.6308 -696.1829 -2963.1436 C -696.1829 -2965.6565 -698.2198 -2967.6934 -700.7327 -2967.6934 C -703.2455 -2967.6934 -705.2824 -2965.6565 -705.2824 -2963.1436 C -705.2824 -2962.3177 -705.0584 -2961.5197 -704.64546 -2960.8198 C -704.5965 -2960.7358 -704.5825 -2960.6378 -704.61046 -2960.5468 L -705.1214 -2958.755 Z M -695.7069 -2964.6696 C -693.51605 -2964.0046 -691.9831 -2961.9747 -691.9831 -2959.6438 C -691.9831 -2958.741 -692.2141 -2957.866 -692.6411 -2957.096 L -691.9971 -2954.842 C -691.9201 -2954.576 -692.1651 -2954.331 -692.4311 -2954.408 L -694.685 -2955.052 C -695.45495 -2954.625 -696.3299 -2954.394 -697.23285 -2954.394 C -699.5637 -2954.394 -701.5936 -2955.927 -702.2586 -2958.118 C -702.6156 -2958.223 -702.95855 -2958.37 -703.2805 -2958.552 L -705.5344 -2957.908 C -705.8004 -2957.831 -706.0454 -2958.076 -705.9684 -2958.342 L -705.3244 -2960.5958 C -705.7514 -2961.3657 -705.9824 -2962.2407 -705.9824 -2963.1436 C -705.9824 -2966.0415 -703.6305 -2968.3934 -700.7327 -2968.3934 C -698.3668 -2968.3934 -696.3579 -2966.8254 -695.7069 -2964.6696 Z M -695.5319 -2963.8646 C -695.49694 -2963.6266 -695.48294 -2963.3886 -695.48294 -2963.1436 C -695.48294 -2960.2458 -697.8348 -2957.894 -700.7327 -2957.894 C -700.97765 -2957.894 -701.2156 -2957.908 -701.4536 -2957.943 C -700.7677 -2956.249 -699.11575 -2955.094 -697.23285 -2955.094 C -696.4069 -2955.094 -695.6089 -2955.318 -694.909 -2955.731 C -694.825 -2955.78 -694.727 -2955.794 -694.636 -2955.766 L -692.8441 -2955.255 L -693.35506 -2957.047 C -693.38306 -2957.138 -693.36906 -2957.236 -693.3201 -2957.32 C -692.9071 -2958.02 -692.6831 -2958.811 -692.6831 -2959.6438 C -692.6831 -2961.5267 -693.838 -2963.1856 -695.5319 -2963.8646 Z" fill="#c0e0ff"/>
        </g>
        <g id="Graphic_12680"/>
      </g>
    </g>
  </g>
</svg>
